X: 50
T:Dunse Dings A'
M:4/4
L:1/8
R:Reel
K:A
e|"A"ceef/g/ aecA|"A"ceef/g/ a3e|"A"ce ef/g/ aecA|"G"B=GGB d2d:|!
|:"A"c/B/A eA  fA "A"eA|"A"c/B/A ef a2ae|"A"c/B/A eA  fA "A"eA|
"G"B=GGB d2d:||
